X:415
T:Reel 415
M:4/4
K:Dmaj
L:1/8
dB|ADFD DCDB,|A,DFD E2Bc|dDFD CDEF|G2FD E2AB|d2FE FGFE|DEFD EB,B,2|A,DFD EDFD|AFEF D2:| (3ABc |dcdA BdAF|GEFG EDB,D|dcdB AdFA|GFED E2FA|dcdB BdAF|GAFD E2FE|DFAd BGFD|EDEF 
